X: 31
T: No_126_Yonder_the_Flames_Leap_Upward.krn
N: Derived from No_126_Yonder_the_Flames_Leap_Upward.krn
%%abc-version 2.0
%%abcx-abcm2ps-target-version 5.9.1 (29 Sep 2008)
%%abc-creator hum2abc beta
%%abcx-conversion-date 2019/03/15 08:37:56
%%humdrum-veritas 3644791709
%%humdrum-veritas-data 3730372759
%%linebreak <none>
%%barnumbers 0
L: 1/8
M: 2/4
K: Ab clef=bass
E,E, [I:setbarnb 1]| 
B,B, B,B, | 
B,/B,3/ _CB, | 
B,A, F,F,/E,/ ||  
[M:3/4]E,/E,3/ E,/E,3/ F,F, ||  
[M:2/4]E,3E, ||  
[M:3/4]E,4E,E, ||  
[M:2/4]B,B, B,B, | 
B,/B,3/ _CB, | 
B,A, F,F,/E,/ ||  
[M:3/4]E,/E,3/ E,/E,3/ F,F, ||  
[M:2/4]E,3E, ||  
[M:3/4]E,4E,D, | 
F,F, A,3/F,/ A,/F,/F, ||  
[M:2/4]E,2E,C, | 
F,F, E,E, | 
E,2C,C, | 
E,3E, ||  
[M:3/4]E,4E,D, | 
F,F, A,3/F,/ A,/F,/F, ||  
[M:2/4]E,2E,C, | 
F,F, E,E, | 
E,2C,C, | 
E,3E, | 
E,4 |]  



